theme/dist/img/detske-postele.svg

<svg fill="none" height="56" viewBox="0 0 65 56" width="65" xmlns="http://www.w3.org/2000/svg"><g fill="#8c8c8c"><path d="m63.5385 32.3077h-1.077v-3.2308c-.0028-2.1385-1.2707-4.0726-3.2307-4.928v-16.61044c-.0003-.42808-.2539-.81523-.6462-.98646.4202-.67335.6439-1.45062.6462-2.24431 0-2.37906-1.9287-4.30769-4.3077-4.30769-2.3791 0-4.3077 1.92863-4.3077 4.30769.0044.75843.2112 1.50191.5988 2.15385h-37.813c.3876-.65194.5944-1.39542.5988-2.15385 0-2.37906-1.9286-4.30769-4.30769-4.30769-2.37906 0-4.30769 1.92863-4.30769 4.30769.00228.79369.22601 1.57096.64615 2.24431-.39227.17123-.64589.55838-.64615.98646v16.61044c-1.96.8554-3.22795 2.7895-3.23077 4.928v3.2308h-1.07693c-.594728 0-1.07692.4822-1.07692 1.0769v15.0769c0 .5948.482192 1.077 1.07692 1.077h1.07693v5.3846c0 .5947.48219 1.0769 1.07692 1.0769h4.30769c.59473 0 1.07693-.4822 1.07693-1.0769v-5.3846h47.38461v5.3846c0 .5947.4822 1.0769 1.0769 1.0769h4.3077c.5948 0 1.0769-.4822 1.0769-1.0769v-5.3846h1.077c.5947 0 1.0769-.4822 1.0769-1.077v-15.0769c0-.5947-.4822-1.0769-1.0769-1.0769zm-8.6154-30.15385c1.1896 0 2.1538.96425 2.1538 2.15384 0 1.1896-.9642 2.15385-2.1538 2.15385s-2.1539-.96425-2.1539-2.15385c0-1.18959.9643-2.15384 2.1539-2.15384zm-45.23079 0c1.18959 0 2.15389.96425 2.15389 2.15384 0 1.1896-.9643 2.15385-2.15389 2.15385-1.1896 0-2.15385-.96425-2.15385-2.15385 0-1.18959.96425-2.15384 2.15385-2.15384zm-2.15385 6.46154h49.53844v15.07691h-4.3357c.7127-.9265 1.1011-2.0618 1.105-3.2308v-2.1538c-.0035-2.9723-2.4124-5.3811-5.3847-5.3846h-8.6153c-2.9724.0035-5.3812 2.4123-5.3847 5.3846v2.1538c.0039 1.169.3923 2.3043 1.105 3.2308h-6.5176c.7127-.9265 1.101-2.0618 1.1049-3.2308v-2.1538c-.0035-2.9723-2.4123-5.3811-5.3846-5.3846h-8.6154c-2.9723.0035-5.3811 2.4123-5.3846 5.3846v2.1538c.0039 1.169.3923 2.3043 1.105 3.2308h-4.33574zm44.15384 9.69231v2.1538c0 1.7844-1.4464 3.2308-3.2308 3.2308h-8.6153c-1.7844 0-3.2308-1.4464-3.2308-3.2308v-2.1538c0-1.7843 1.4464-3.2308 3.2308-3.2308h8.6153c1.7844 0 3.2308 1.4465 3.2308 3.2308zm-23.6923 0v2.1538c0 1.7844-1.4464 3.2308-3.2308 3.2308h-8.6154c-1.7843 0-3.2307-1.4464-3.2307-3.2308v-2.1538c0-1.7843 1.4464-3.2308 3.2307-3.2308h8.6154c1.7844 0 3.2308 1.4465 3.2308 3.2308zm-23.69231 10.7692c0-1.7843 1.44645-3.2307 3.23077-3.2307h49.53844c1.7844 0 3.2308 1.4464 3.2308 3.2307v3.2308h-56.00001zm2.15385 24.7693h-2.15385v-4.3077h2.15385zm53.84616 0h-2.1538v-4.3077h2.1538zm2.1538-6.4616h-60.30765v-12.9231h60.30765z"/><path d="m9.69211 43.0771h-4.30769c-.59473 0-1.07692.4822-1.07692 1.077 0 .5947.48219 1.0769 1.07692 1.0769h4.30769c.59469 0 1.07689-.4822 1.07689-1.0769 0-.5948-.4822-1.077-1.07689-1.077z"/><path d="m59.2306 43.0771h-45.2308c-.5947 0-1.0769.4822-1.0769 1.077 0 .5947.4822 1.0769 1.0769 1.0769h45.2308c.5947 0 1.0769-.4822 1.0769-1.0769 0-.5948-.4822-1.077-1.0769-1.077z"/></g></svg>

<svg width="65" height="56" viewBox="0 0 65 56" fill="none" xmlns="http://www.w3.org/2000/svg">
<path d="M63.5385 32.3077H62.4615V29.0769C62.4587 26.9384 61.1908 25.0043 59.2308 24.1489V7.53846C59.2305 7.11038 58.9769 6.72323 58.5846 6.552C59.0048 5.87865 59.2285 5.10138 59.2308 4.30769C59.2308 1.92863 57.3021 0 54.9231 0C52.544 0 50.6154 1.92863 50.6154 4.30769C50.6198 5.06612 50.8266 5.8096 51.2142 6.46154H13.4012C13.7888 5.8096 13.9956 5.06612 14 4.30769C14 1.92863 12.0714 0 9.69231 0C7.31325 0 5.38462 1.92863 5.38462 4.30769C5.3869 5.10138 5.61063 5.87865 6.03077 6.552C5.6385 6.72323 5.38488 7.11038 5.38462 7.53846V24.1489C3.42462 25.0043 2.15667 26.9384 2.15385 29.0769V32.3077H1.07692C0.482192 32.3077 0 32.7899 0 33.3846V48.4615C0 49.0563 0.482192 49.5385 1.07692 49.5385H2.15385V54.9231C2.15385 55.5178 2.63604 56 3.23077 56H7.53846C8.13319 56 8.61539 55.5178 8.61539 54.9231V49.5385H56V54.9231C56 55.5178 56.4822 56 57.0769 56H61.3846C61.9794 56 62.4615 55.5178 62.4615 54.9231V49.5385H63.5385C64.1332 49.5385 64.6154 49.0563 64.6154 48.4615V33.3846C64.6154 32.7899 64.1332 32.3077 63.5385 32.3077ZM54.9231 2.15385C56.1127 2.15385 57.0769 3.1181 57.0769 4.30769C57.0769 5.49729 56.1127 6.46154 54.9231 6.46154C53.7335 6.46154 52.7692 5.49729 52.7692 4.30769C52.7692 3.1181 53.7335 2.15385 54.9231 2.15385ZM9.69231 2.15385C10.8819 2.15385 11.8462 3.1181 11.8462 4.30769C11.8462 5.49729 10.8819 6.46154 9.69231 6.46154C8.50271 6.46154 7.53846 5.49729 7.53846 4.30769C7.53846 3.1181 8.50271 2.15385 9.69231 2.15385ZM7.53846 8.61539H57.0769V23.6923H52.7412C53.4539 22.7658 53.8423 21.6305 53.8462 20.4615V18.3077C53.8427 15.3354 51.4338 12.9266 48.4615 12.9231H39.8462C36.8738 12.9266 34.465 15.3354 34.4615 18.3077V20.4615C34.4654 21.6305 34.8538 22.7658 35.5665 23.6923H29.0489C29.7616 22.7658 30.1499 21.6305 30.1538 20.4615V18.3077C30.1503 15.3354 27.7415 12.9266 24.7692 12.9231H16.1538C13.1815 12.9266 10.7727 15.3354 10.7692 18.3077V20.4615C10.7731 21.6305 11.1615 22.7658 11.8742 23.6923H7.53846V8.61539ZM51.6923 18.3077V20.4615C51.6923 22.2459 50.2459 23.6923 48.4615 23.6923H39.8462C38.0618 23.6923 36.6154 22.2459 36.6154 20.4615V18.3077C36.6154 16.5234 38.0618 15.0769 39.8462 15.0769H48.4615C50.2459 15.0769 51.6923 16.5234 51.6923 18.3077ZM28 18.3077V20.4615C28 22.2459 26.5536 23.6923 24.7692 23.6923H16.1538C14.3695 23.6923 12.9231 22.2459 12.9231 20.4615V18.3077C12.9231 16.5234 14.3695 15.0769 16.1538 15.0769H24.7692C26.5536 15.0769 28 16.5234 28 18.3077ZM4.30769 29.0769C4.30769 27.2926 5.75414 25.8462 7.53846 25.8462H57.0769C58.8613 25.8462 60.3077 27.2926 60.3077 29.0769V32.3077H4.30769V29.0769ZM6.46154 53.8462H4.30769V49.5385H6.46154V53.8462ZM60.3077 53.8462H58.1539V49.5385H60.3077V53.8462ZM62.4615 47.3846H2.15385V34.4615H62.4615V47.3846Z" fill="#8C8C8C"/>
<path d="M9.69211 43.0771H5.38442C4.78969 43.0771 4.3075 43.5593 4.3075 44.1541C4.3075 44.7488 4.78969 45.231 5.38442 45.231H9.69211C10.2868 45.231 10.769 44.7488 10.769 44.1541C10.769 43.5593 10.2868 43.0771 9.69211 43.0771Z" fill="#8C8C8C"/>
<path d="M59.2306 43.0771H13.9998C13.4051 43.0771 12.9229 43.5593 12.9229 44.1541C12.9229 44.7488 13.4051 45.231 13.9998 45.231H59.2306C59.8253 45.231 60.3075 44.7488 60.3075 44.1541C60.3075 43.5593 59.8253 43.0771 59.2306 43.0771Z" fill="#8C8C8C"/>
</svg>
